X:1
T:Wounded for Me, 8.10.10.10
T:Wounded for Me, 8.10.10.10
T:William Gilbert Ovens (1870-1945)
T:Public Domain Courtesy of the Cyber Hymnal™
C:William Gilbert Ovens (1870-1945)
Z:Public Domain
Z:Courtesy of the Cyber Hymnal™
%%score 1 ( 2 3 )
L:1/8
M:3/4
K:Eb
V:1 treble 
V:2 bass 
V:3 bass 
V:1
 [GB]2 [^F=A]2 [^G^B]2 | [Ac]6 | [DB]2 [DA]2 [B,D]2 | [B,E]6 | [B,E]2 [EG]2 [GB]2 | %5
 [Ge]4 [Fd][Ge] | [Fd]2 [=Ad]3 [Ac] | [FB]6 | [Ge]2 [Bd]2 [Ac]2 | [GB]3 [FA] [EG]2 | %10
 [CF]2 [C=E]2 F2 | [Ac]6 | [^Fe]3 [Fd] [Fc]2 | [GB]2 [FA]2 [EG]2 | [CF]3 [CE] [B,D]2 | [B,E]6 |] %16
V:2
 [E,B,]2 [E,C]2 [E,B,]2 | A,6 | [B,,F,]2 [B,,B,]2 [B,,A,]2 | [E,G,]6 | [E,G,]2 [E,B,]2 [E,B,]2 | %5
 [C,C]4 [C,C][C,C] | (B,D) [F,F]3 [F,E] | [B,D]6 | [E,B,]2 [E,B,]2 (CD) | [E,E]3 [D,B,] [E,B,]2 | %10
 A,2 [G,B,]2 [F,A,]2 | [F,C]6 | [=A,C]3 [A,D] [A,E]2 | [B,E]2 [D,B,]2 [E,B,]2 | %14
 [A,,A,]3 [B,,G,] [B,,A,]2 | [E,G,]6 |] %16
V:3
 x6 | x6 | x6 | x6 | x6 | x6 | F,2 x4 | x6 | x4 E,2 | x6 | x6 | x6 | x6 | x6 | x6 | x6 |] %16

